packages/assets/static/images/icons/bulldozer.svg

<svg width="24" height="24" viewBox="0 0 24 24" xmlns="http://www.w3.org/2000/svg">
<path d="M23.25 18.75H22.5C22.3011 18.75 22.1103 18.671 21.9697 18.5303C21.829 18.3897 21.75 18.1989 21.75 18V15C21.75 14.8011 21.829 14.6103 21.9697 14.4697C22.1103 14.329 22.3011 14.25 22.5 14.25H23.25C23.4489 14.25 23.6397 14.171 23.7803 14.0303C23.921 13.8897 24 13.6989 24 13.5C24 13.3011 23.921 13.1103 23.7803 12.9697C23.6397 12.829 23.4489 12.75 23.25 12.75H22.5C21.9033 12.75 21.331 12.9871 20.909 13.409C20.4871 13.831 20.25 14.4033 20.25 15V15.75H18.675C18.5184 14.9903 18.1306 14.2977 17.5648 13.7671C16.999 13.2365 16.2829 12.894 15.5147 12.7866L12.135 4.67344C12.0212 4.4 11.8289 4.16639 11.5825 4.00205C11.3361 3.83772 11.0465 3.75002 10.7503 3.75H2.25C1.85218 3.75 1.47065 3.90804 1.18934 4.18934C0.908037 4.47064 0.750002 4.85218 0.750002 5.25V14.25C0.33215 14.8071 0.0776967 15.4696 0.0151543 16.1632C-0.047388 16.8568 0.0844514 17.5542 0.3959 18.1771C0.707348 18.7999 1.1861 19.3238 1.77851 19.6899C2.37092 20.0561 3.05358 20.25 3.75 20.25H15C15.8642 20.2489 16.7015 19.95 17.371 19.4035C18.0404 18.857 18.501 18.0965 18.675 17.25H20.25V18C20.25 18.5967 20.4871 19.169 20.909 19.591C21.331 20.0129 21.9033 20.25 22.5 20.25H23.25C23.4489 20.25 23.6397 20.171 23.7803 20.0303C23.921 19.8897 24 19.6989 24 19.5C24 19.3011 23.921 19.1103 23.7803 18.9697C23.6397 18.829 23.4489 18.75 23.25 18.75ZM13.875 12.75H6V5.25H10.7503L13.875 12.75ZM4.5 5.25V12.75H3.75C3.23363 12.7496 2.72282 12.8565 2.25 13.0641V5.25H4.5ZM15 18.75H3.75C3.15326 18.75 2.58097 18.5129 2.15901 18.091C1.73705 17.669 1.5 17.0967 1.5 16.5C1.5 15.9033 1.73705 15.331 2.15901 14.909C2.58097 14.4871 3.15326 14.25 3.75 14.25H15C15.5967 14.25 16.169 14.4871 16.591 14.909C17.0129 15.331 17.25 15.9033 17.25 16.5C17.25 17.0967 17.0129 17.669 16.591 18.091C16.169 18.5129 15.5967 18.75 15 18.75ZM15.75 16.5C15.75 16.6989 15.671 16.8897 15.5303 17.0303C15.3897 17.171 15.1989 17.25 15 17.25H3.75C3.55109 17.25 3.36032 17.171 3.21967 17.0303C3.07902 16.8897 3 16.6989 3 16.5C3 16.3011 3.07902 16.1103 3.21967 15.9697C3.36032 15.829 3.55109 15.75 3.75 15.75H15C15.1989 15.75 15.3897 15.829 15.5303 15.9697C15.671 16.1103 15.75 16.3011 15.75 16.5Z"/>
</svg>

<svg viewBox="0 0 24 24" xmlns="http://www.w3.org/2000/svg" aria-hidden="true" fill="currentColor"><path d="M23.25 18.75h-.75a.75.75 0 0 1-.75-.75v-3a.75.75 0 0 1 .75-.75h.75a.75.75 0 1 0 0-1.5h-.75A2.25 2.25 0 0 0 20.25 15v.75h-1.575a3.76 3.76 0 0 0-3.16-2.963l-3.38-8.114a1.5 1.5 0 0 0-1.385-.923h-8.5a1.5 1.5 0 0 0-1.5 1.5v9a3.75 3.75 0 0 0 3 6H15a3.76 3.76 0 0 0 3.675-3h1.575V18a2.25 2.25 0 0 0 2.25 2.25h.75a.75.75 0 1 0 0-1.5m-9.375-6H6v-7.5h4.75zM4.5 5.25v7.5h-.75c-.516 0-1.027.107-1.5.314V5.25zM15 18.75H3.75a2.25 2.25 0 0 1 0-4.5H15a2.25 2.25 0 0 1 0 4.5m.75-2.25a.75.75 0 0 1-.75.75H3.75a.75.75 0 1 1 0-1.5H15a.75.75 0 0 1 .75.75"/></svg>
